svgs/whatsapp.svg

<svg width="24" height="24" viewBox="0 0 24 24" fill="none" xmlns="http://www.w3.org/2000/svg">
<path fill-rule="evenodd" clip-rule="evenodd" d="M11.996 22C9.85531 21.999 8.23674 21.3962 6.54123 20.39L2.75568 21.3821L3.76631 17.693C2.65857 15.9303 1.99898 14.2455 2 11.9954C2.00202 6.48399 6.48863 2 12.004 2C17.5336 2.00202 22.0021 6.47996 22 12.0035C21.997 17.516 17.5074 22 11.996 22ZM17.65 14.5945C17.8595 14.6956 18.0006 14.7637 18.0607 14.8644C18.1366 14.9898 18.1366 15.5916 17.8858 16.2944C17.6349 16.9962 16.4341 17.6373 15.8564 17.7233C15.3384 17.8002 14.6829 17.8326 13.9626 17.604C13.5266 17.4654 12.9661 17.2804 12.2489 16.971C9.43543 15.7567 7.5333 13.0329 7.16844 12.5105C7.14222 12.4729 7.12394 12.4467 7.11383 12.4333L7.11042 12.4287C6.94854 12.2124 5.88672 10.7934 5.88672 9.32467C5.88672 7.94245 6.56485 7.21781 6.8784 6.88276C6.90046 6.85918 6.92072 6.83753 6.93881 6.81771C7.21398 6.51635 7.53973 6.44153 7.74003 6.44153L8.31666 6.45164C8.33811 6.4527 8.36042 6.45256 8.3835 6.45243C8.55848 6.45138 8.77715 6.45007 8.99345 6.96739C9.07041 7.1527 9.18066 7.42128 9.29862 7.70863C9.56366 8.35428 9.8676 9.09468 9.92012 9.19826C9.99602 9.34894 10.0456 9.5249 9.94538 9.72513C9.92993 9.75587 9.91569 9.78484 9.9021 9.81248C9.82668 9.96583 9.77135 10.0784 9.6419 10.2257C9.59157 10.2845 9.53967 10.3478 9.4878 10.411C9.38433 10.5371 9.28101 10.663 9.19072 10.7526C9.04099 10.9023 8.88419 11.0651 9.0592 11.3654C9.23421 11.6668 9.83818 12.6508 10.7315 13.4476C11.6906 14.3034 12.5248 14.6652 12.9487 14.8489C13.0322 14.8852 13.0998 14.9145 13.1493 14.9393C13.4497 15.0899 13.6258 15.0647 13.8007 14.8644C13.9757 14.6642 14.5523 13.9867 14.7527 13.6863C14.954 13.3849 15.1544 13.4355 15.4295 13.5356C15.7056 13.6358 17.1837 14.3629 17.4841 14.5135C17.5434 14.5431 17.5987 14.5698 17.65 14.5945Z" fill="#FFF1C0"/>
</svg>

<svg xmlns="http://www.w3.org/2000/svg" width="24" height="24" fill="none" viewBox="0 0 24 24"><path fill="#FFF1C0" fill-rule="evenodd" d="M11.996 22c-2.14-.001-3.76-.604-5.455-1.61l-3.785.992 1.01-3.689C2.66 15.93 2 14.245 2 11.995 2.002 6.484 6.489 2 12.004 2A9.995 9.995 0 0 1 22 12.004C21.997 17.516 17.507 22 11.996 22m5.654-7.405c.21.1.35.169.41.27.077.125.077.727-.174 1.43-.251.701-1.452 1.342-2.03 1.428-.518.077-1.173.11-1.893-.119a17.42 17.42 0 0 1-1.714-.633c-2.814-1.214-4.716-3.938-5.08-4.46a3.428 3.428 0 0 0-.055-.078l-.004-.004c-.161-.217-1.223-1.636-1.223-3.104 0-1.383.678-2.107.991-2.442.022-.024.043-.045.06-.065.276-.302.602-.376.802-.376l.577.01h.066c.175 0 .394-.002.61.515l.306.742c.265.645.569 1.386.621 1.49.076.15.126.326.025.526l-.043.087c-.075.154-.13.266-.26.414-.05.058-.102.122-.154.185a4.862 4.862 0 0 1-.297.342c-.15.15-.307.312-.132.612.175.302.78 1.286 1.673 2.083a7.747 7.747 0 0 0 2.217 1.4c.083.037.15.066.2.091.3.15.477.126.652-.075.175-.2.751-.877.952-1.178.201-.301.401-.25.677-.15s1.754.827 2.054.978l.166.08" clip-rule="evenodd"/></svg>
